packages/dnb-eufemia/assets/icons/brickwall_medium.svg

<svg width="24" height="24" viewBox="0 0 24 24" fill="none" xmlns="http://www.w3.org/2000/svg">
<path d="M22.485 15.75H1.51483M21.759 8.25H2.24071M12.036 8.25V15.75M16.8 15.75L17.3 23.25M15.5 0.75L16 8.25M7.3 15.75L6.8 23.25M8.5 0.75L8 8.25M1.51483 15.75L0.78894 23.25H23.2109L21.1639 2.1C21.1268 1.73009 20.9535 1.38717 20.6779 1.13773C20.4022 0.888295 20.0437 0.750119 19.6719 0.75H4.32794C3.95617 0.750119 3.59769 0.888295 3.32201 1.13773C3.04634 1.38717 2.87312 1.73009 2.83594 2.1L2.24071 8.25M1.51483 15.75L2.24071 8.25" stroke="black" stroke-width="1.5" stroke-linecap="round" stroke-linejoin="round"/>
</svg>

<svg width="24" height="24" viewBox="0 0 24 24" fill="none" xmlns="http://www.w3.org/2000/svg"><path d="M22.485 15.75H1.515m20.244-7.5H2.241m9.795 0v7.5m4.764 0 .5 7.5M15.5.75l.5 7.5m-8.7 7.5-.5 7.5M8.5.75 8 8.25m-6.485 7.5-.726 7.5H23.21L21.164 2.1A1.5 1.5 0 0 0 19.672.75H4.328A1.5 1.5 0 0 0 2.836 2.1L2.24 8.25m-.726 7.5.726-7.5" stroke="#000" stroke-width="1.5" stroke-linecap="round" stroke-linejoin="round"/></svg>
